X:1
T:Dargent me plains (4v)
T:Dargent me plains (4v)
T:Tielman Susato
C:Tielman Susato
%%score [ 1 [ 2 3 ] 4 ]
L:1/8
Q:1/4=84
M:2/2
K:F
V:1 treble nm="Superius" snm="S"
V:2 treble-8 nm="Tenor 1" snm="T 1"
V:3 treble-8 nm="Tenor 2" snm="T 2"
V:4 bass nm="Bass" snm="B"
V:1
 z8 | F4 G4 | A4 F4 | z2 F2 A3 B | c6 c2 | B2 AG A4- | A4 z4 | z4 z2 c2- | c2 B2 A2 G2- | %9
w: |D'ar- gent|me plains,|non d'a- mours|ou d'a-|my- * * e|_|dont|_ je ne puis|
 GFFE/D/ C2 D2 | E3 F G2 A2 | G2 F4 E2 | F8- | F4 z4 | F4 G4 | A4 F4 | z2 F2 A3 B | c6 c2 | %18
w: _ _ _ _ _ _ la|jo- ys- san- c'a-||voir,|_|car sans|ar- gent|for- tu- n'est|en- ne-|
 B2 AG A4- | A4 z4 | z4 z2 c2- | c2 B2 A2 G2- | GF/E/ D2 C2 D2 | E3 F G2 A2 | G2 F4 E2 | F8- | %26
w: my- * * e,|_|à|_ cil qui veult|_ _ _ _ _ tout|ses _ _ de-|sirs a- *|voir,|
 F4 z4 | z4 z2 F2 | F4 G4 | A6 A2 | A2 G2 F2 F2 | E4 z2 E2 | F4 D4 | C8 | z2 G2 G2 G2 | F2 D2 F4 | %36
w: _|qui|a d'ar-|gent et|fust il sans sca-|voir, pour|le ser-|vir|ung chas- cun|s'ap- pa- reil-|
 E8 | z2 G2 G2 G2 | F2 D2 F3 E/D/ | C2 E2 D4 |[M:2/4] C4 |: z2 A2 |[M:2/2] A4 G4 | F6 F2 | %44
w: le,|pour le ser-|vir ung chas- cun _|s'ap- pa- reil-|le.|Mais|com- me'on|peult pour|
 F2 E2 D2 D2 | C4 z4 | z4 c4 | B2 A2 A3 G/F/ | E4 z2 C2 | F2 F2 G2 G2 | A2 F4 B2- | BA A4 G2 | %52
w: vray ap- per- che-|voir,|faul-|te d'ar- gent, _ _|_ c'est|dou- leur non pa-|reil- * *||
 A4 z2 c2 | B2 A2 A3 G/F/ | E2 C2 F2 F2 | G2 G2 A2 F2- | F2 B2- BAGF | E2 F4 E2 | F8 :| %59
w: le, faul-|te d'ar- gent, _ _|_ c'est dou- leur|non pa- reil- *|||le.|
V:2
 c4 f3 e | dc f4 e2 | f2 c2 d3 e | f6 f2 | e3 d c2 f2- | f2 e2 f4 | z2 c2 d2 e2 | f3 e/d/ e4 | %8
w: gent me _|_ _ plains, _|non d'a- mours *|ou d'a-|my- * * e,|* * dont|je ne puis,|dont _ _ _|
 z4 c2 d2 | e2 f4 f2 | efgf ed c2 | d4 c4 | A4 z4 | c4 f3 e | dc f4 e2 | f2 c2 d3 e | f6 f2 | %17
w: je ne|puis la jo-|ys- * * * san- * c'a-|voir, *|car|sans ar- _|_ _ gent *|for- tu- n'est en-|ne my-|
 e3 d c2 f2- | f2 e2 f4 | z2 c2 d2 e2 | f3 e/d/ e4 | z4 c2 d2 | e2 f4 f2 | efgf ed c2 | d4 c4 | %25
w: e, * * *|* * à|cil qui veult,|à _ _ _|cil qui|veult tout ses|de- _ _ _ _ _ sirs|a- voir,|
 A4 z2 c2 | c2 d2 e2 c2 | f2 d2 c2 d2- | dc f4 e2 | f2 c2 fedc | dA c4 B2 | c8 | z2 c2 d2 f2- | %33
w: qui a|d'ar- gent et fust|il sans sca- voir,||et fust il _ _ _|sans _ sca- voir,|pour|le ser- vir|
 f2 c2 z4 | z2 _e2 d2 G2 | de f4 c2 | z4 c4 | B2 G2 B3 c | d4 A4 | z2 G2 A2 B2 |[M:2/4] G4 |: %41
w: * ung|chas- cun s'ap-|pa- reil- le, ung|chas-|cun s'ap- pa- reil-|le, s'ap-|pa- reil- le.|Mais|
 z2 d2 |[M:2/2] d2 A2 d4- | d2 d2 f2 d2 | c3 B A2 F2 | cdec de f2- | f2 e2 f2 f2 | d2 f2 f2 F2 | %48
w: com-|me'on peult pour|_ vray ap- per-|che- voir, a- per-|che * * * * * *|* voir, faul- te|d'ar- gent, c'est dou-|
 (3c3 d e2 f3 e/d/ | c2 f4 e2 | f4 z2 g2 | e2 f2 d3 e | f2 c4 A2 | B2 c2 d4 | z2 A2 F2 A2 | %55
w: leur * * non pa- _|reil- le, *|faul- te|d'ar- gent, c'est dou-|leur non pa-|reil- le, faul-|te d'ar- gent,|
 G4 z2 c2 | f2 d4 B2 | c2 B2 c4 | A8 :| %59
w: c'est dou-|leur non pa-|reil- * le.|D'ar-|
V:3
 z4 F4 | B3 A G4 | z2 F2 B2 A2 | F4 z2 F2 | A3 B c2 A2 | B2 c2 FGAB | c4 z2 G2 | A3 B c4 | %8
w: gent|me plains, d'ar-|gent me plains,|non d'a-|mours ou d'a- my-|e, * * * * *|dont je|ne puis, dont|
 z2 G2 A2 B2 | c2 z F A2 B2 | c6 c2 | B3 A G2 G2 | F8 | z4 F4 | B3 A G4 | z2 F2 B2 A2 | F4 z2 F2 | %17
w: je ne puis,|dont je ne puis|la jo-|ys- san- c'a- voir,|car|sans|ar- gent, car|sans ar- gent,|for- tu-|
 A3 B c2 A2 | B2 c2 FGAB | c4 z2 G2 | A3 B c4 | z2 G2 A2 B2 | c2 z F A2 B2 | c6 c2 | B3 A G2 G2 | %25
w: n'est en- ne- my-|e, * * * * *|à cil|qui veult, à|cil qui veult,|à cil qui veult|tout ses|de- dirs a- voir,|
 F4 z4 | F2 F2 G2 A2 | F2 B2 A2 z A | d2 c2 B2 B2 | A6 A2 | F2 G2 A2 F2 | G2 G2 A2 c2 | F4 z2 B2 | %33
w: qui|a ar- gent et|fust il, et fust|il sans sca- voir,|et fust|il sans sca- voir,|pour le- ser- vir|ung chas-|
 A2 F2 z2 c2 | B2 G2 B3 c | d4 A4 | z2 G2 A2 c2 | G8 | z2 B2 A2 F2 | AB c4 B2 |[M:2/4] c4 |: %41
w: cun ung chas-|cun s'ap- pa- reil-|le, s'ap-|pa- reil- le,|s'ap-|pa- reil- le.||Mais|
 z2 F2 |[M:2/2] F4 G4 | A4 z2 A2- | A2 c2 F2 A2- | AB c3 B BA | c4 F4 | B2 c2 d4 | z2 c2 c2 A2 | %49
w: com-|me'on peult,|pour vray|_ ap- per- che-|* * voir, * * *|faul- te|d'ar- gent, c'est|dou- leur non|
 c2 d2 B4 | A2 d2 d2 B2 | c2 d2 B4 | A8 | z2 F4 D2 | E2 F2 z2 c2 | c2 c2 A2 A2 | d3 c B3 A | %57
w: pa- reil- le,|faul- te d'ar- gent,|c'est dou- leur|non|pa- reil-|le, faul- te|d'ar- gent, c'est dou-|leur non pa- reil-|
 G2 F2 G4 | F8 :| %59
w: le. * *|D'ar-|
V:4
 z8 | z4 C,4 | F,3 E, D,4 | z2 D,2 D,2 D,2 | A,,4 z4 | z2 C,2 F,3 G, | A,2 A,2 G,4 | F,4 z2 C,2 | %8
w: |gent|me plains, d'ar-|gent me plains,|non|d'a- mours ou|d'a- my- e,|dont je|
 D,2 _E,2 F,2 E,D, |"^b" C,2 F,2 F,2 D,2 | C,2 C,2 E,2 F,2 | B,,4 C,4 | F,,4 z2 F,,2 | F,3 E, D,4 | %14
w: ne puis, dont _ _|_ je ne puis|la jo- ys- san-|c'a- voir,|car sans|ar- gent car|
 z4 C,4 | F,3 E, D,4 | z2 D,2 F,2 D,2 | A,,4 z4 | z2 C,2 F,3 G, | A,2 A,2 G,4 | F,4 z2 C,2 | %21
w: sans|ar- gent car|sans ar- gent,|for-|tu- n'est en-|ne- my- e,|à cil|
 D,2 _E,2 F,2 E,D, | C,2 F,2 F,2 D,2 | C,3 D, E,2 F,2 | B,,4 C,4 | F,,8- | F,,4 z2 F,2 | %27
w: qui veult, à _ _|_ cil qui veult,|tout ses de- sirs|a- voir,|qui|_ a|
 F,2 G,2 A,2 F,2 | B,2 A,2 G,2 G,2 | F,4 D,4 | F,2 E,2 D,2 D,2 | C,4 z2 C,2 | D,2 F,2 B,,4 | %33
w: ar- gent et fust|il sans sca- voir,|et fust|il sans sca- voir,|pour le|ser- vir, ung|
 z2 F,2 E,2 C,2 | _E,3 F, G,4 | D,2 B,,2 D,2 F,2 | C,4 z4 | z4 z2 _E,2 | D,2 B,,2 D,3 E, | %39
w: chas- cun s'ap-|pa- reil- reil-|le, * * *|ung|chas-|cun s'ap- pa- reil-|
 F,2 E,2 F,2 G,2 |[M:2/4] C,4 |: z2 D,2 |[M:2/2] D,4 G,,4 | D,6 D,2 | F,2 C,2 D,3 E, | %45
w: le. * * *|Mais|com-|me'on peult|pour vray|ap- per- che- *|
 F,2 E,2 D,4 | C,2 C3 B, A,2 | G,2 F,3 E, D,2 | C,2 C,2 F,3 G, | A,2 B,2 G,4 | F,2 B,2 B,2 G,2 | %51
w: * * voir,|faul- te d'ar- gent,||c'est dou- leur non|pa- reil- le,|faul- te d'ar- gent,|
 A,2 F,2 G,4 | F,8 | z8 | z2 F,2 D,2 F,2 | E,2 C,2 F,3 E, | D,C,B,,A,, G,,4 | C,2 D,2 C,4 | F,,8 :| %59
w: c'est dou- leur,|faul-||te d'ar- gent,|c'est dou- leur non|sans _ _ _ _|reil- * le.||

